X: 1
T: Carson's March
M: 4/4
L: 1/8
R: strathspey
K: Emin
F>G|:B,2E2 E2A>B | G2F2 E2~e2 | G2F2 F2G>A | F2E2 D2A,2 |
B,2E2 B2B>A | G2E2 F2A,2 | F2D>G A2B>A | G2F2 E2F>G :|
|: B,2E2 F>GB,>E | A>BG>A F>GB,>E | D2A>G F>B,B>A | G4 F>GF>D |
B,2E2 B>EB>A | A>dA>G A>GF2 | F2D>G A>dB>A | G>AF>G E2F>G :|
